X:2135
T:Galway Lasses
O:england
M:4/4
L:1/8
C:Traditional
R:R
K:D
|:BFF2 BFAF|EFDE FAA2|BFF2 BFAF|EFGE FDFA|
BFF2 BFAF|EFDE FAA2|BABc dBAF|EFGE FDFA:|
|:dAA2 BdAB|dfed BeeA|dAA2 BdAF|EFGE FDFA|
dAA2 BdAB|dfed Beed|fdec dBAF|EFGE FDFA:||


